assets/Pushpin/Flat/pushpin_flat.svg

<svg width="32" height="32" viewBox="0 0 32 32" fill="none" xmlns="http://www.w3.org/2000/svg">
<path d="M2.3825 29.495C1.8725 28.985 1.8725 28.165 2.3825 27.655L11.3425 18.695L13.1825 20.535L4.2225 29.495C3.7125 30.005 2.8925 30.005 2.3825 29.495Z" fill="#D3D3D3"/>
<path d="M20.0329 19.174L24.6361 14.5708L23 8.5L17.2045 7.13916L12.6012 11.7424L14 17.5L20.0329 19.174Z" fill="#CA0B4A"/>
<path d="M17.1825 7.125L24.6525 14.585C25.6725 15.605 27.3225 15.605 28.3425 14.585L29.4525 13.475C29.8725 13.055 29.8725 12.375 29.4525 11.955L19.8125 2.315C19.3925 1.895 18.7125 1.895 18.2925 2.315L17.1825 3.425C16.1625 4.445 16.1625 6.105 17.1825 7.125Z" fill="#F8312F"/>
<path d="M6.0825 14.565L17.2025 25.685C17.7225 26.205 18.5725 26.205 19.0925 25.685L20.0025 24.775C21.5625 23.215 21.5625 20.695 20.0025 19.135L12.6325 11.765C11.0725 10.205 8.5525 10.205 6.9925 11.765L6.0825 12.675C5.5625 13.195 5.5625 14.045 6.0825 14.565Z" fill="#F8312F"/>
</svg>

<svg xmlns="http://www.w3.org/2000/svg" width="32" height="32" fill="none"><path fill="#D3D3D3" d="M2.382 29.495c-.51-.51-.51-1.33 0-1.84l8.96-8.96 1.84 1.84-8.96 8.96c-.51.51-1.33.51-1.84 0Z"/><path fill="#CA0B4A" d="m20.033 19.174 4.603-4.603L23 8.5l-5.796-1.36-4.603 4.602L14 17.5l6.033 1.674Z"/><path fill="#F8312F" d="m17.183 7.125 7.47 7.46a2.607 2.607 0 0 0 3.69 0l1.11-1.11c.42-.42.42-1.1 0-1.52l-9.64-9.64c-.42-.42-1.1-.42-1.52 0l-1.11 1.11a2.62 2.62 0 0 0 0 3.7ZM6.082 14.565l11.12 11.12c.52.52 1.37.52 1.89 0l.91-.91a3.983 3.983 0 0 0 0-5.64l-7.37-7.37a3.983 3.983 0 0 0-5.64 0l-.91.91a1.34 1.34 0 0 0 0 1.89Z"/></svg>
